X:165
T:Playhouse Squabble, The
M: C|
L:1/8
B:Thompson's Compleat Collection of 200 Favourite Country Dances, vol. 3 (London, 1773)
Z:Transcribed and edited by Flynn Titford-Mock, 2007
Z:abc's:AK/Fiddler's Companion
K:G
GBdg ec "tr"c2 | dBAc BG "tr"G2 | GBdg gfbg | fed^c d2 D2 :|
|: GB/c/ dB Gc/d/ ec | GB/c/ dB cA "tr"A2 | GB/c/ dB dgfg | (3dBG (3cAF G2 G,2 :|

